X: 3
T: Polska # 3
T: efter Ingra Per Olsson
M: 3/4
L: 1/16
K: Dmaj
Q:120
|: {g}f3{g}e f4 g3f| (f2gf) e4 A4 | {ef}e3d e4 f3e| e3c d4 A4 | {g}f3{g}e f4 g3f | f3e e2g2 b4| b3a a4 c3d|
(e2fe) d8 :: {A}d3g b4 b3e|  c3e a7 (A|B3)c D4 d3A| F3A d6 d2 | d2ed c4 E3F| FG3 G8|
e3d c3B A3G| F3G A6 A2| d3g b4 b3e| c3e a6 A2| c3e g3e B3c | (cd3) d8 :| (e2c2) d8||

